X: 1
T: the Jig Broke Out
C: Rob Flax, Deanna Carloni, Sharman Smith, Savannah Watson
N: Created "online" using the flat.io music collaboration software.
R: jig
Z: 2020 John Chambers <jc:trillian.mit.edu>
S: Andy Reiner on facebook 2020-09-20
M: 6/8
L: 1/8
K: G
"^A"|:\
"G"GAB ABc | d2d dcB | "C"c2c    cBA |    Bdd "D"cBA |
"G"GAB ABc | d2d dcB | "C"cee "G"dBG | "D"AGF "G"G3 :|
"^B"|:\
"G"d2d dBG | d2d dBG | "C"e2e    ege | "G"dBG "D"A2z |
"G"d2d dBG | d2d dBd | "C"ege "G"dBG | "D"AGF "G"G3 :|
